X: 169
T:Over The Hills And Far Away. HA.168
M:C
L:1/8
Q:1/4=160
S:Henry Atkinson's original MS,Hartburn,N'umberland,1694.
O:England
A:Hartburn,Northumberland
N:some illegible comments follow in pencil in MS. NBr
H:1/8
Z:vmp.Neil Brookes, Jan.2004
K:C
GA|c3d cded|c2A4 GA|c3d cdec|f2d2-d2cA|!
c3d cded|c2A2 A2c2|G3A GAcd|e2d2-d2||!
ef|gfga gede|c2A2-A2ef|gfga gedc|e2d2-d2ef|!
gfga gede|c2A2 A2c2|G3A GAcd|e2d2-d2|]
